X:554
T:Badd554-  There was a Jovial Beggar-Man
S:Sylvia, 1731
Q:1/4=120
L:1/4
M:6/4
K:G
G/A/|B3/2 c/BA3/2 G/F|G3/2 A/GD2d|e2de2f|(g3g2)e|\
d2cB3/2 A/G|A3/2 B/AF3/2 E/D|G2Gd2B|G3G2:|]

